svg/justvector/linkedin.svg

<svg xmlns="http://www.w3.org/2000/svg" viewBox="0 0 100 100" enable-background="new 0 0 100 100"><path d="m95 59.727v33.27h-19.29v-31.05c0-7.799-2.79-13.12-9.773-13.12-5.33 0-8.502 3.587-9.897 7.06-.509 1.241-.64 2.967-.64 4.704v32.406h-19.296c0 0 .26-52.58 0-58.03h19.295v8.225c-.039.062-.09.128-.127.188h.127v-.188c2.563-3.948 7.141-9.588 17.388-9.588 12.696 0 22.21 8.294 22.21 26.12m-79.08-52.727c-6.601 0-10.919 4.33-10.919 10.02 0 5.57 4.193 10.03 10.663 10.03h.129c6.729 0 10.914-4.46 10.914-10.03-.127-5.694-4.185-10.02-10.787-10.02m-9.773 86h19.289v-58.03h-19.289v58.03"/></svg>

<?xml version="1.0" encoding="iso-8859-1"?>
<!-- Generator: Adobe Illustrator 15.0.0, SVG Export Plug-In . SVG Version: 6.00 Build 0)  -->
<!DOCTYPE svg PUBLIC "-//W3C//DTD SVG 1.1//EN" "http://www.w3.org/Graphics/SVG/1.1/DTD/svg11.dtd">
<svg version="1.1" id="Icons" xmlns="http://www.w3.org/2000/svg" xmlns:xlink="http://www.w3.org/1999/xlink" x="0px" y="0px"
	 width="100px" height="100px" viewBox="0 0 100 100" style="enable-background:new 0 0 100 100;" xml:space="preserve">
<path id="LinkedIn" d="M95,59.727V93H75.71V61.955c0-7.799-2.79-13.121-9.773-13.121c-5.33,0-8.502,3.587-9.897,7.056
	c-0.509,1.241-0.64,2.967-0.64,4.704V93H36.104c0,0,0.26-52.58,0-58.028h19.295v8.225c-0.039,0.062-0.09,0.128-0.127,0.188h0.127
	v-0.188c2.563-3.948,7.141-9.588,17.388-9.588C85.483,33.609,95,41.903,95,59.727z M15.919,7C9.318,7,5,11.33,5,17.024
	c0,5.57,4.193,10.031,10.663,10.031h0.129c6.729,0,10.914-4.46,10.914-10.031C26.579,11.33,22.521,7,15.919,7z M6.146,93h19.289
	V34.972H6.146V93z"/>
</svg>
